plugins/kotlin/frontend-independent/resources/org/jetbrains/kotlin/idea/icons/kotlin_launch_configuration.svg

<?xml version="1.0" encoding="utf-8"?>
<!-- Generator: Adobe Illustrator 24.1.2, SVG Export Plug-In . SVG Version: 6.00 Build 0)  -->
<svg version="1.2" baseProfile="tiny" id="Layer_1" xmlns="http://www.w3.org/2000/svg" xmlns:xlink="http://www.w3.org/1999/xlink"
	 x="0px" y="0px" viewBox="0 0 16 16" overflow="visible" xml:space="preserve">
<g>
	<path fill-rule="evenodd" fill="#9AA7B0" fill-opacity="0.8" d="M14,8h-1V4H2v9h6v1H1V1h13V8z M3,5h9v1H3V5z M3,7h9v1H3V7z M3,9h5
		v1H3V9z M3,11h5v1H3V11z"/>
</g>
<polygon fill="#7F52FF" points="16,16 9,16 9,9 16,9 12.5,12.5 "/>
</svg>

<svg xmlns="http://www.w3.org/2000/svg" width="16" height="16" viewBox="0 0 16 16">
  <defs>
    <linearGradient id="kotlin_launch_configuration-a" x1="-16.836%" x2="76.219%" y1="91.94%" y2="-1.116%">
      <stop offset="10.75%" stop-color="#C757BC"/>
      <stop offset="21.38%" stop-color="#D0609A"/>
      <stop offset="42.54%" stop-color="#E1725C"/>
      <stop offset="60.48%" stop-color="#EE7E2F"/>
      <stop offset="74.3%" stop-color="#F58613"/>
      <stop offset="82.32%" stop-color="#F88909"/>
    </linearGradient>
  </defs>
  <g fill="none" fill-rule="evenodd">
    <path fill="#9AA7B0" fill-opacity=".8" d="M14,8 L13,8 L13,4 L2,4 L2,13 L8,13 L8,14 L1,14 L1,1 L14,1 L14,8 Z M3,5 L12,5 L12,6 L3,6 L3,5 Z M3,7 L12,7 L12,8 L3,8 L3,7 Z M3,9 L8,9 L8,10 L3,10 L3,9 Z M3,11 L8,11 L8,12 L3,12 L3,11 Z"/>
    <g transform="translate(9 9)">
      <polygon fill="#0EAEFF" fill-rule="nonzero" points="0 7 3.512 3.488 7 7"/>
      <polygon fill="#0EAEFF" fill-rule="nonzero" points="0 0 3.512 0 0 3.792"/>
      <polygon fill="url(#kotlin_launch_configuration-a)" fill-rule="nonzero" points="3.512 0 0 3.698 0 7 3.512 3.488 7 0"/>
    </g>
  </g>
</svg>
